ion/flash-off-outline.svg

<svg viewBox="0 0 512 512" xmlns="http://www.w3.org/2000/svg"><g><path d="M432 448v0c-4.25 0-8.32-1.69-11.31-4.69l-352-352v0c-6.09-6.41-5.83-16.54.57-22.62 6.17-5.87 15.86-5.87 22.04 0l352 352h-.001c6.24 6.25 6.24 16.38-.01 22.62 -3 2.99-7.07 4.68-11.31 4.68Z"/><path d="M294.34 84.28l-22.08 120.84v0c-1.1 5.98 1.29 12.07 6.17 15.71v0c2.88 2.1 6.36 3.21 9.93 3.17h94.12l-38.37 47.42 -.001-.001c-1.29 1.59-1.17 3.89.28 5.34l17.07 17.07v0c1.56 1.56 4.09 1.56 5.65 0 .09-.1.19-.21.28-.32l60.8-75.16v0c3.31-4 4.53-9.33 3.3-14.36v0c-1.83-7.07-8.21-12.01-15.5-12h-108.81l28.21-154.37c.05-.3.1-.59.13-.89v0c1.28-10.11-5.87-19.35-15.98-20.64 -6.43-.82-12.82 1.79-16.83 6.89l-92.58 114.46v0c-1.3 1.59-1.18 3.9.28 5.35l17.07 17.06v0c1.56 1.56 4.09 1.56 5.65 0 .09-.1.19-.21.28-.32Z"/><path d="M217.78 427.57l22-120.71v0c1.08-5.99-1.32-12.07-6.19-15.7v0c-2.89-2.1-6.36-3.21-9.92-3.16h-94.1l38.36-47.42v0c1.28-1.6 1.16-3.9-.28-5.34l-17.07-17.07v0c-1.57-1.57-4.1-1.56-5.66 0 -.1.09-.19.19-.28.3l-60.85 75.16h0c-3.32 3.99-4.54 9.32-3.3 14.36h0c1.82 7.06 8.2 12 15.5 12h108.83l-28.09 154.36v.11 -.001c-1.73 9.99 4.98 19.5 14.98 21.22 6.62 1.14 13.34-1.43 17.51-6.7l92.61-114.46v0c1.29-1.6 1.17-3.91-.28-5.35l-17.07-17.06v0c-1.57-1.57-4.1-1.57-5.66-.01 -.1.09-.2.2-.29.31Z"/></g></svg>

<svg xmlns="http://www.w3.org/2000/svg" width="512" height="512" viewBox="0 0 512 512"><path d="M432,448a15.92,15.92,0,0,1-11.31-4.69l-352-352A16,16,0,0,1,91.31,68.69l352,352A16,16,0,0,1,432,448Z"/><path d="M294.34,84.28,272.26,205.12a16,16,0,0,0,6.17,15.71,16.49,16.49,0,0,0,9.93,3.17h94.12l-38.37,47.42a4,4,0,0,0,.28,5.34l17.07,17.07a4,4,0,0,0,5.94-.31l60.8-75.16A16.37,16.37,0,0,0,431.5,204,16,16,0,0,0,416,192H307.19L335.4,37.63c.05-.3.1-.59.13-.89A18.45,18.45,0,0,0,302.73,23L210.15,137.46a4,4,0,0,0,.28,5.35l17.07,17.06a4,4,0,0,0,5.94-.31Z"/><path d="M217.78,427.57l22-120.71a16,16,0,0,0-6.19-15.7,16.54,16.54,0,0,0-9.92-3.16h-94.1l38.36-47.42a4,4,0,0,0-.28-5.34l-17.07-17.07a4,4,0,0,0-5.93.31L83.8,293.64A16.37,16.37,0,0,0,80.5,308,16,16,0,0,0,96,320H204.83L176.74,474.36l0,.11A18.37,18.37,0,0,0,209.24,489l92.61-114.46a4,4,0,0,0-.28-5.35L284.5,352.13a4,4,0,0,0-5.94.31Z"/></svg>
